packages/core/src/svgs/tokens/mono/PPT.svg

<svg width="24" height="24" viewBox="0 0 24 24" fill="none" xmlns="http://www.w3.org/2000/svg">
<path d="M10.9474 21.6537V5.68422H15.8896C16.0786 5.68422 16.2106 5.83791 16.2106 6.02001V14.8226C16.2106 15.0048 16.0786 15.1595 15.899 15.1595H13.0548V21.6537C13.0548 21.8358 12.9127 22 12.7243 22H11.2264C10.9974 21.9885 10.9469 21.8485 10.9474 21.6537ZM9.89485 15.1579H8.13902C7.95797 15.1537 7.79902 15.008 7.78955 14.8337V6.02001C7.78955 5.83791 7.95007 5.68422 8.13902 5.68422H9.89485V15.1579ZM9.89485 3.5779C9.89485 4.44422 10.9495 5.15633 12.2632 5.15633C13.577 5.15633 14.6317 4.44422 14.6317 3.5779C14.6317 2.70264 13.577 2 12.2632 2C10.9495 2 9.89485 2.71211 9.89485 3.5779Z" fill="white"/>
</svg>

<svg xmlns="http://www.w3.org/2000/svg" width="24" height="24" fill="none" viewBox="0 0 24 24">
    <path fill="#fff" d="M10.947 21.654V5.684h4.943c.189 0 .32.154.32.336v8.803c0 .182-.131.336-.311.336h-2.844v6.495c0 .182-.142.346-.33.346h-1.499c-.229-.012-.28-.151-.279-.346m-1.052-6.496H8.139a.36.36 0 0 1-.35-.324V6.02c0-.182.161-.336.35-.336h1.756zm0-11.58c0 .866 1.055 1.578 2.368 1.578 1.314 0 2.369-.712 2.369-1.578 0-.875-1.055-1.578-2.369-1.578-1.313 0-2.368.712-2.368 1.578"/>
</svg>
